X:1
T:Butterfly Waltz
T:Butterfly Waltz
T:Sibeal
T:Louise Luddy
T:Louise Luddy
T:Louise Luddy
T:Louise Luddy
T:Louise Luddy
T:Louise Luddy
T:Louise Luddy
C:Sibeal
Z:Louise Luddy
%%score 1 2 3 { 4 | 5 }
L:1/8
M:3/4
K:F
V:1 treble nm="Violin" snm="Vln."
V:2 treble nm="Violin" snm="Vln."
V:3 bass nm="Violoncello" snm="Vlc."
V:4 treble+8 nm="Piano" snm="Pno."
V:5 bass+8 
V:1
 z2 | C6 | C6 | D6 | E6 | A,6 | E6 | F6 | C6 | C6 | C6 | D6 | E6 | A,6 | E6 | F6 | C6 | D6 | D6 | %19
 A6 | c6 | d6 | d6 | c6 | G4 AB |:"F" c4 FE |"Am" F4 c2 |"Bb" c3 d BA |"C" B4 AB |"F" c4 FE | %30
"Am" F4 A2 |"Bb" D6 |"C" E4 AB |"F" c4 FE |"Am" F4 c2 |"Bb" c3 d BA |"C" B4 AB |"F" c3 f ef | %38
"Am" c3 f ef |"Bb" c6 |"C" d4 de |"Dm" f3 e ge |"Bb" f3 e ge |"F" f2 e2 d2 |"C" G3 G AG | %45
"Dm" F3 G Ad |"Bb" c2 A2 FA |"C" G6- |"C" G4 FE |"Dm" F6 |"G" D3 =B, GF |"C" E2 F2 G2 | %52
"F" C3 C FE |"Dm" F2 G2 A2 |"G" A2 G3 F |"C" G6 |"C" C4 FE |"Dm" F6 |"G" D3 =B, GF |"C" E2 F2 G2 | %60
"F" C3 C FE |"Dm" F2 G2 A2 |"G" A2 =B3 c |"C" c4 G2- |"C" G4 z2 |1 z6 | z6 | z6 :|2 z6 || z6 | z6 | %71
 z6 | z6 | z6 | z6 | z6 | z6 | z6 | z6 | z6 | z6 | z6 | z6 | z6 | z6 | z6 | z6 | z6 | z6 | z6 | %90
 z6 | z6 | z6 | z6 | z6 | z6 | z6 | z6 | z6 | z6 | z6 | z6 | z6 | z6 | z6 | z6 | z6 | z6 | z6 | %109
 z6 | z6 | z6 | z6 | z6 |] %114
V:2
 z2 | A,6 | E6 | F6 | G6 | C6 | C6 | D6 | E6 | A,6 | E6 | F6 | G6 | C6 | C6 | D6 | E6 | F6 | F6 | %19
 C6 | E6 | F6 | F6 | G6 | E6 |: z6 | z6 | z6 | z6 | z6 | z6 | z6 | z6 | z6 | z6 | z6 | z6 | z6 | %38
 z6 | z6 | z4 de |"Dm" f3 e ge |"Bb" f3 e ge |"F" f2 e2 d2 |"C" G3 G AG |"Dm" F3 G Ad | %46
"Bb" c2 A2 FA |"C" G6- |"C" G4 FE |"Dm" F6 |"G" D3 =B, GF |"C" E2 F2 G2 |"F" C3 C FE | %53
"Dm" F2 G2 A2 |"G" A2 G3 F |"C" G6 |"C" C4 FE |"Dm" F6 |"G" D3 =B, GF |"C" E2 F2 G2 |"F" C3 C FE | %61
"Dm" F2 G2 A2 |"G" A2 =B3 c |"C" c4 G2- |"C" G4 z2 |1 z6 | z6 | z6 :|2 z6 || z6 | z6 | z6 | z6 | %73
 z6 | z6 | z6 | z6 | z6 | z6 | z6 | z6 | z6 | z6 | z6 | z6 | z6 | z6 | z6 | z6 | z6 | z6 | z6 | %92
 z6 | z6 | z6 | z6 | z6 | z6 | z6 | z6 | z6 | z6 | z6 | z6 | z6 | z6 | z6 | z6 | z6 | z6 | z6 | %111
 z6 | z6 | z6 |] %114
V:3
 z2 | F,6 | A,6 | B,6 | C6 | F,6 | A,6 | B,6 | G,6 | F,6 | A,6 | B,6 | C6 | F,6 | A,6 | B,6 | G,6 | %17
 A,6 | B,6 | F,6 | G,6 | A,6 | B,6 | E,6 | C,6 |: F,6 | A,6 | B,6 | C6 | F,6 | A,6 | B,6 | G,6 | %33
 F,6 | A,6 | B,6 | C6 | F,6 | A,6 | B,6 | G,6 | A,6 | B,6 | F,6 | G,6 | A,6 | B,6 | E,6 | C,6 | %49
 A,6 | =B,6 | C6 | F,6 | A,6 | =B,6 | C6 | C,4 F,E, |"Dm" F,6 |"G" D,3 =B,, G,F, |"C" E,2 F,2 G,2 | %60
"F" C,3 C, F,E, |"Dm" F,2 G,2 A,2 |"G" A,2 =B,3 C |"C" C4 G,2- |"C" G,6 |1 G,2 A,2 B,2 | %66
 B,2 A,2 G,2 | C,6 :|2 z6 || z6 | z6 | z6 | z6 | z6 | z6 | z6 | z6 | z6 | z6 | z6 | z6 | z6 | z6 | %83
 z6 | z6 | z6 | z6 | z6 | z6 | z6 | z6 | z6 | z6 | z6 | z6 | z6 | z6 | z6 | z6 | z6 | z6 | z6 | %102
 z6 | z6 | z6 | z6 | z6 | z6 | z6 | z6 | z6 | z6 | z6 | z6 |] %114
V:4
 AB |"F" c4 FE |"Am" F4 c2 |"Bb" c3 d BA |"C" B4 AB |"F" c4 FE |"Am" F4 A2 |"Bb" D6 |"C" C4 AB | %9
"F" c4 FE |"Am" F4 c2 |"Bb" c3 d BA |"C" B4 AB |"F" c3 f ef |"Am" c3 f ef |"Bb" c6 |"C" d4 de | %17
"Dm" f3 e ge |"Bb" f3 e ge |"F" f2 e2 d2 |"C" G3 G AG |"Dm" F3 G Ad |"Bb" c2 A2 FA |"C" G6- | %24
"C" G4 AB |:"F" c4 FE |"Am" F4 c2 |"Bb" c3 d BA |"C" B4 AB |"F" c4 FE |"Am" F4 A2 |"Bb" D6 | %32
"C" E4 AB |"F" c4 FE |"Am" F4 c2 |"Bb" c3 d BA |"C" B4 AB |"F" c3 f ef |"Am" c3 f ef |"Bb" c6 | %40
"C" d4 de |"Dm" f3 e ge |"Bb" f3 e ge |"F" f2 e2 d2 |"C" G3 G AG |"Dm" F3 G Ad |"Bb" c2 A2 FA | %47
"C" G6- |"C" G4 FE |"Dm" F6 |"G" D3 =B, GF |"C" E2 F2 G2 |"F" C3 C FE |"Dm" F2 G2 A2 |"G" A2 G3 F | %55
"C" G6 |"C" C4 FE |"Dm" F6 |"G" D3 =B, GF |"C" E2 F2 G2 |"F" C3 C FE |"Dm" F2 G2 A2 |"G" A2 =B3 c | %63
"C" c4 G2- |"C" G4 z G |1"C" G2 A2 B2 |"C" B2 A2 G2 |"C" z4 AB :|2"C" G2 c3 c ||"C" c4- cc | %70
"C" c2 d2 e2 |"C" e4 fe |"Dm" f6 |"G" d3 =B gf |"C" e2 f2 g2 |"F" c3 c fe |"Dm" f2 g2 a2 | %77
"G" a2 g2- gf |"C" g6 |"C" c4 fe |"Dm" f6 |"G" d3 =B gf |"C" e2 f2 g2 |"F" c3 c fe |"Dm" f2 g2 a2 | %85
"G" a2 =b2- bc' |"C" c'4 g2- |"C" g4 z g |"C" g2 a2 b2 |"C" b2 a2 g2- |"C" g4!8va(! ab | %91
"F" c'4 fe |"Am" f4 c'2 |"Bb" c'3 d' ba |"C" b4 ab |"F" c'4 fe |"Am" f4 a2 |"Bb" d6 |"C" e4 ab | %99
"F" c'4 fe |"Am" f4 c'2 |"Bb" c'3 d' ba |"C" b4 ab |"F" c'3 f' e'f' |"Am" c'3 f' e'f' |"Bb" c'6 | %106
"C" d'4 e'2 |"F" f'6!8va)! | z6 | F2 A2 c2 | f2 a2 c'2 | f'6 |{/f} f'6- | f'6 |] %114
V:5
 z2 | F,,2 C,2 F,2 | A,,2 E,2 A,2 | B,,2 F,2 B,2 | C,2 G,2 C2 | F,,2 C,2 F,2 | A,,2 E,2 A,2 | %7
 B,,2 F,2 B,2 | C,2 G,2 C2 | F,,2 C,2 F,2 | A,,2 E,2 A,2 | B,,2 F,2 B,2 | C,2 G,2 C2 | %13
 F,,2 C,2 F,2 | A,,2 E,2 A,2 | B,,2 F,2 B,2 | C,2 G,2 C2 | D,2 A,2 D2 | B,,2 F,2 B,2 | %19
 F,,2 C,2 F,2 | C,,2 G,,2 C,2 | D,,2 A,,2 D,2 | B,,,2 F,,2 B,,2 | C,,2 G,,2 C,2 | C,,2 G,,2 C,2 |: %25
 F,,2 C,2 F,2 | A,,2 E,2 A,2 | B,,2 F,2 B,2 | C,2 G,2 C2 | F,,2 C,2 F,2 | A,,2 E,2 A,2 | %31
 B,,2 F,2 B,2 | C,2 G,2 C2 | F,,2 C,2 F,2 | A,,2 E,2 A,2 | B,,2 F,2 B,2 | C,2 G,2 C2 | %37
 F,,2 C,2 F,2 | A,,2 E,2 A,2 | B,,2 F,2 B,2 | C,2 G,2 C2 | D,2 A,2 D2 | B,,2 F,2 B,2 | %43
 F,,2 C,2 F,2 | C,,2 G,,2 C,2 | D,,2 A,,2 D,2 | B,,,2 F,,2 B,,2 | C,,2 G,,2 C,2 | C,,2 G,,2 C,2 | %49
 D,,2 A,,2 D,2 | G,,2 D,2 G,2 | C,,2 G,,2 C,2 | F,,2 C,2 F,2 | D,,2 A,,2 D,2 | G,,2 D,2 G,2 | %55
 C,,2 G,,2 C,2 | C,,2 G,,2 C,2 | D,,2 A,,2 D,2 | G,,2 D,2 G,2 | C,,2 G,,2 C,2 | F,,2 C,2 F,2 | %61
 D,,2 A,,2 D,2 | G,,2 D,2 G,2 | C,,2 G,,2 C,2 | C,,2 G,,2 C,2 |1 C,,2 G,,2 C,2 | C,,2 G,,2 C,2 | %67
 C,,2 G,,2 C,2 :|2 C,,2 G,,2 C,2 || C,,2 G,,2 C,2 | C,,2 G,,2 C,2 | C,,2 G,,2 C,2 | D,,2 A,,2 D,2 | %73
 G,,2 D,2 G,2 | C,,2 G,,2 C,2 | F,,2 C,2 F,2 | D,,2 A,,2 D,2 | G,,2 D,2 G,2 | C,,2 G,,2 C,2 | %79
 C,,2 G,,2 C,2 | D,,2 A,,2 D,2 | G,,2 D,2 G,2 | C,,2 G,,2 C,2 | F,,2 C,2 F,2 | D,,2 A,,2 D,2 | %85
 G,,2 D,2 G,2 | C,,2 G,,2 C,2 | C,,2 G,,2 C,2 | C,,2 G,,2 C,2 | C,,2 G,,2 C,2 | C,,2 G,,2 C,2 | %91
!8va(! F,2 C2 F2 | A,2 E2 A2 | B,2 F2 B2 | C2 G2 c2 | F,2 C2 F2 | A,2 E2 A2 | B,2 F2 B2 | %98
 C2 G2 c2 | F,2 C2 F2 | A,2 E2 A2 | B,2 F2 B2 | C2 G2 c2 | F,2 C2 F2 | A,2 E2 A2 | B,2 F2 B2 | %106
 C2 G2 c2!8va)! | F,,2 C,2 F,2 | G,2 A,2 C2 | z6 | z6 | z6 | z6 | z6 |] %114

